assets/Mushroom/Flat/mushroom_flat.svg

<svg width="32" height="32" viewBox="0 0 32 32" fill="none" xmlns="http://www.w3.org/2000/svg">
<path d="M10.9915 25.3086L13.5 18.5H18L20.8311 25.2239C21.3861 26.5422 20.4182 28 18.9878 28H12.8682C11.4767 28 10.5105 26.6143 10.9915 25.3086Z" fill="#FFCE7C"/>
<path d="M4 16C4 13.7292 4.63072 11.6058 5.72653 9.79528L9.5 8L12.7584 4.44294C13.7896 4.15433 14.8768 4 16 4C17.626 4 19.1764 4.32338 20.5905 4.90934L23.5 10.5L27.9552 14.9562C27.9849 15.3002 28 15.6483 28 16V18C28 19.1046 27.1046 20 26 20H6C4.89543 20 4 19.1046 4 18V16Z" fill="#F8312F"/>
<path d="M12.7893 4.43433C12.8422 4.7246 12.87 5.02385 12.87 5.33003C12.87 8.07003 10.64 10.29 7.89996 10.3C7.12279 10.3 6.3848 10.1172 5.72705 9.79433C7.29287 7.20782 9.80796 5.26015 12.7893 4.43433Z" fill="#FBB8AB"/>
<path d="M20.5726 4.90195C19.8506 5.96326 19.43 7.24496 19.43 8.63003C19.43 12.29 22.4 15.26 26.06 15.26C26.719 15.26 27.3565 15.1631 27.9575 14.9832C27.5743 10.4164 24.6337 6.57706 20.5726 4.90195Z" fill="#FBB8AB"/>
<path d="M14.94 17.04C16.4532 17.04 17.68 15.8133 17.68 14.3C17.68 12.7868 16.4532 11.56 14.94 11.56C13.4267 11.56 12.2 12.7868 12.2 14.3C12.2 15.8133 13.4267 17.04 14.94 17.04Z" fill="#FBB8AB"/>
</svg>

<svg xmlns="http://www.w3.org/2000/svg" width="32" height="32" fill="none"><path fill="#FFCE7C" d="M10.992 25.309 13.5 18.5H18l2.831 6.724A2 2 0 0 1 18.988 28h-6.12a2 2 0 0 1-1.877-2.691Z"/><path fill="#F8312F" d="M4 16c0-2.27.63-4.394 1.727-6.205L9.5 8l3.258-3.557A12.011 12.011 0 0 1 16 4c1.626 0 3.176.323 4.59.91l2.91 5.59 4.455 4.456c.03.344.045.692.045 1.044v2a2 2 0 0 1-2 2H6a2 2 0 0 1-2-2v-2Z"/><path fill="#FBB8AB" d="M12.79 4.434c.052.29.08.59.08.896 0 2.74-2.23 4.96-4.97 4.97a4.92 4.92 0 0 1-2.173-.506 12.026 12.026 0 0 1 7.062-5.36ZM20.573 4.902A6.6 6.6 0 0 0 19.43 8.63a6.632 6.632 0 0 0 8.527 6.353c-.383-4.567-3.323-8.406-7.384-10.081ZM14.94 17.04a2.74 2.74 0 1 0 0-5.48 2.74 2.74 0 0 0 0 5.48Z"/></svg>
